X: 1
T:Kas ha barh
C:Storvan
M:4/4
L:1/8
K:C
A2Bc d3c|A2c2 Beee|A2Bc d3c|A2c2 B4:|A2Bc d2c2|
B2c2 A2GA|:c2 BA B2Bc|d2cB A2GA|c2BA B2d2|dcBc A2A2:|
